!! 00000] TT[WS
!!!OTL: Tiao kucai
!!!ARE: Asia, China,ÿShanxi Dingxiang
!! Ethnic Group: Han
!! WI, 56 (2)
!!!SCT: J0062
!!!YEM: Copyright 1995, estate of Helmut Schaffrath.
**kern
*ICvox
*Ivox
*M2/4
*k[f#]
*G:
{4dd
8a
8a
=1
4dd
8ee
8dd
=2
8dd
8a
8a
8dd
=3
4.a
8g}
=4
{8g
4g
8a
=5
8dd
8ee
8dd
8a
=6
8g
16g
16b
8a
8e
=7
2d}
=8
{8dd
8e
4g
=9
8r
4a
8dd
=10
8dd
8a
8a
8g
=11
8a
8e
8e
8d}
=12
{8g
4g
8a
=13
8dd
8ee
8dd
8a
=14
8g
16g
16b
8a
8e
=15
2d}
=16
{8b
16b
16a
8g
8b
=17
8a
8e
8e
8d}
=18
{8g
4g
8a
=19
8.dd
16ee
8dd
8a
=20
8g
16g
16b
8a
8e
=21
2d}
==
!!!AGN: Xiaodiao. Laodong
!!!ONB: ESAC (Essen Associative Code) Database: CHINA
!!!AMT: simple duple
!!!AIN: vox
!!!EED: Helmut Schaffrath
!!!EEV: 1.0
*-
